X:158
T:La grande gigue simple
Z:robin.beech@mcgill.ca
S:Carmen Gu\'erard - Gigue du plateau
M:3/4
L:1/16
K:D
A,DDE FDED EGFD | A,DDE FDEB AGFD | A,DDE FDED EGFD |1 A,DDE FDEB AGFD  :|2 
A,DDE FDEB AGFA || dfed cABc efec | dfed cAdB AGFA | dfed cABc efec | 
dfdf gefd ecAc | dfed cABc efec | dfdf gefd ecAc | dfdf gefd efec | 
dfdf gefd ecAc | defg afdf ecAc | defg afdB AGFD |]

